X:1
T:Where Are Thy Sins?
T:Where Are Thy Sins?
T:Henry Lake Gilmour
T:Clara J. Denton, 1909
T:Public Domain Courtesy of the Cyber Hymnal™
C:Henry Lake Gilmour
Z:Public Domain
Z:Courtesy of the Cyber Hymnal™
%%score ( 1 2 ) ( 3 4 )
L:1/8
Q:1/4=100
M:6/8
K:Db
V:1 treble 
V:2 treble 
V:3 bass 
V:4 bass 
V:1
 [DF][DF][DF] [DB]2 [FA] | [FA]2 [_F__A] [EG]3 | [CE]2 [CE] [EA]2 [EG] | [EG]2 [DF] [DF]3 | %4
w: 1.~Where are thy sins, O|bro- ther, where?|Child of sor- row|and des- pair,|
w: 2.~Where are thy sins, O|bro- ther, pray?|Not one mo- ment|long- er stay;|
w: 3.~Where are thy sins? O|bro- ther, see,|Ra- diance beams from|Cal- va- ry;|
w: 4.~Yield now, O yield! my|bro- ther dear,|Je- sus speaks sweet|words of cheer;|
 [DB]2 [DB] [Fd]2 [Ac] | [Gc]2 [GB] [GB]2 [GB] | [FA]2 [FA] [FA]2 [DF] | [CE]3 D3 || %8
w: Dost thou still thy|bur- dens bear? O|bring them all to|Je- sus.|
w: He will speak thy|sins a- way, O|bring them all to|Je- sus.|
w: Par- doned now thy|sins may be, O|bring them all to|Je- sus.|
w: Joy will come in-|stead of fear; Sur-|ren- der all to|Je- sus.|
"^Refrain" [FA][FA][FA] (AB)[Gc] | [Fd]2 [Gd] [Fd]3 | [GB][GB][GB] (Bc)[Gd] | [Ge]2 [Ge] [Ge]3 | %12
w: ||||
w: “Who is a God * like|un- to Thee,|Par- don- eth all * in-|iq- ui- ty,|
w: ||||
w: ||||
 dcB AGF | [DE][DF][EG] !fermata![EB]2 [EB] | [GA][GA][GA] [Gc][Gc][Gc] | [Ge]3 [Fd]3 |] %16
w: ||||
w: Cast- eth our sins in the|depths of the sea, Be-|cause He de- light- eth in|mer- cy.”|
w: ||||
w: ||||
V:2
 x6 | x6 | x6 | x6 | x6 | x6 | x6 | x3 D3 || x3 G2 x | x6 | x3 G2 x | x6 | dcB AGF | x6 | x6 | %15
 x6 |] %16
V:3
 [D,A,][D,A,][D,A,] [D,G,]2 [D,A,] | [A,,A,]2 [A,,A,] [A,,C]3 | [A,,A,]2 [A,,A,] [C,A,]2 [C,A,] | %3
 [D,A,]2 [D,A,] [D,A,]3 | G,2 G, [D,A,]2 [F,A,] | [G,B,]2 [G,D] [G,D]2 [G,D] | %6
 [A,D]2 [A,D] [A,,D]2 [A,,A,] | [A,,G,]3 [D,F,]3 || [D,A,][D,A,][D,D] [A,C]2 A, | %9
 [D,A,]2 [D,B,] [D,A,]3 | G,[G,B,][G,D] [E,C]2 [E,C] | [A,C]2 [A,C] [A,C]3 | DCB, A,G,F, | %13
 [G,B,][F,B,][E,B,] !fermata![G,,B,]2 [G,,B,] | [A,,C][A,,C][A,,C] [A,,A,][A,,A,][A,,A,] | %15
 [D,A,]3 [D,A,]3 |] %16
V:4
 x6 | x6 | x6 | x6 | G,2 G, x3 | x6 | x6 | x6 || x5 A, | x6 | G, x5 | x6 | DCB, A,G,F, | x6 | x6 | %15
 x6 |] %16

